X:159
T:AIR XXXVI. Bonniest Lass in all the World.
O:england
B:Joseph Mitchell: "The Highland Fair" (1731)
M:C|
L:1/8
K:G
GA|B2D2 E2GA|A3G   E2DE|G2G2 g2d2  |e4  d2
ga|bage degB|cBA>G E2DE|G2g2 d>ec>d|B3A G2||
ef|g2d2 e2g2|abag  egae|dega bage  |g4  d2
ga|bage degB|cBAG  EGDE|GABc degd  |B3A G2|]


